X: 51
T: Co się chlubisz, niewstydliwy,
C: Mikołaj Gomółka
%%abc-version 2.0
%%abcx-abcm2ps-target-version 5.9.1 (29 Sep 2008)
%%abc-creator hum2abc beta
%%abcx-conversion-date 2021/10/04 07:59:09
%%abc-edited-by Marta Lawrence
%%abcx-initial-encoding-date 2020-02-20
%%humdrum-veritas 2438516887
%%humdrum-veritas-data 3337453114
%%linebreak <none>
%%barnumbers 0
L: 1/4
M: C|
N: Derived from pl-wn--sd-xvi-qu-273--052_gomolka-mikolaj--co-sie-chlubisz-niewstydliwy.krn
%%staves [1 2 3 4]
V: 1
V: 2 clef=alto
V: 3 clef=tenor
V: 4 clef=bass
K: F
[V:1] A4A2d2 [|] 
[V:2] D4A,2B,2 [|] 
[V:3] D,4F,2G,2 [|] 
[V:4] D,4D,2B,,2 [|] 
[V:1] c2>B2AGA2 [|] 
[V:2] C2>D2E2F2 [|] 
[V:3] A,4A,2C2 [|] 
[V:4] A,,4A,,2F,,2 [|] 
[V:1] G4F2A2 [|] 
[V:2] D4D2F2 [|] 
[V:3] B,4A,2A,2 [|] 
[V:4] G,,A,,B,,C,D,C,D,E, [|] 
[V:1] A2GFEDEF [|] 
[V:2] F2CD2<E2D2 [|] 
[V:3] A,2A,2C4 [|] 
[V:4] F,2F,2C,3D, [|] 
[V:1] GFFE/D/EF2E [|] 
[V:2] CA,B,2<C2B, [|] 
[V:3] B,A,A,G,/F,/G,4 [|] 
[V:4] E,2F,2C,4 [|] 
[V:1] F2F2F2A2 [|] 
[V:2] A,2C2C2C2 [|] 
[V:3] F,2A,2A,2A,2 [|] 
[V:4] F,,2F,,2F,,2F,,2 [|] 
[V:1] B2>A2G2F4 [|] 
[V:2] D4C2B,2 [|] 
[V:3] F,4E,2F,2 [|] 
[V:4] B,,4C,2D,2 [|] 
[V:1] E2F2F2 [|] 
[V:2] C2>B,2A,2D2 [|] 
[V:3] G,4F,2A,2 [|] 
[V:4] C,4F,,2D,2 [|] 
[V:1] A2^F2G3F [|] 
[V:2] E2D2D3C [|] 
[V:3] A,2A,2B,3A, [|] 
[V:4] ^C,2D,2G,,3A,, [|] 
[V:1] EDD4C2 [|] 
[V:2] CB,A,G,A,4 [|] 
[V:3] G,F,E,D,E,4 [|] 
[V:4] =C,2D,2A,,4 [|] 
[V:1] D32 |]  
[V:2] A,32 |]  
[V:3] D,32 |]  
[V:4] D,32 |]  


